X:1
T:I Am Happy in Him
T:Edward Othello Excell, 1902
T:I Am Happy in Him
T:Public Domain
T:Public Domain
T:Public Domain
C:Edward Othello Excell, 1902
Z:Public Domain
%%score ( 1 2 ) ( 3 4 )
L:1/8
M:9/8
K:Eb
V:1 treble 
V:2 treble 
V:3 bass 
V:4 bass 
V:1
 [G,B,] | (z B,B, [B,G])[A,F][B,G] [EG]<[DB][CA] x3 | z B,B, [G,E]3- [G,E]2 [EG] | %3
w: 1.~My|* * * soul is so hap- py|* * * * Je-|
w: 2.~He|* * * sought me so long ere|* * * * knew|
w: 3.~His|* * * love and His mer- cy|* * * * round|
w: 4.~They|* * * say I shall some day|* * * * like|
 z DD [DB][CA][B,G] [A,F]<[B,G][A,F] | z G,G, [G,E]3- [G,E]2 [G,B,] | %5
w: * * * For He is so pre-|* * * * to|
w: * * * When wand- ’ring a- far|* * * * the|
w: * * * His grace like a riv-|* * * * doth|
w: * * * My cross and my bur-|* * * * lay|
 z B,B, [B,G][A,F][B,G] [EG]<[DB][CA] x3 | z B,B, [G,E]3- [G,E]2 [B,G] | %7
w: * * * His voice * it is|* * * * sic|
w: * * * Safe home * in His|* * * * He|
w: * * * His Spir- * it, to|* * * * and|
w: * * * Till then * I will|* * * * er|
 z =A,A, [A,F][A,G][A,F] [A,C]>[A,D][A,E] x3 | [A,-B,F-]3 [A,-C]3 [A,DF]3 || %9
w: * * * hear it, His face it||
w: * * * bro’t me, To where there||
w: * * * com- fort, Is with me||
w: * * * faith- ful, In gath- er-||
"^Refrain" [B,E]2 [B,E] [B,E]<[B,B][B,E] | [B,D]6 | [DB]2 [DB] [DB]<[DF][Ac] | [EG]3- [EG]2 [GB] | %13
w: heav- en to see. *||||
w: plea- sures un- told. I|am|hap- py in Him, I|am * hap-|
w: ev- er I go. *||||
w: gems for His crown. *||||
 [Ge]>[Ad][Ee] [EF]2 [EB] | [DB]>[Dc][DB] [CE]2 [DB] | [Ee]2 [EG] [DF]<[DG][DF] | E3- E2 |] %17
w: ||||
w: py in Him; My soul|with de- light He fills|day and night For I|am *|
w: ||||
w: ||||
V:2
 x | G3- x9 | G3 x6 | B3- x6 | E3- x6 | G3- x9 | G3 x6 | F3- x9 | x9 || x6 | x6 | x6 | x6 | x6 | %14
w: |in|sus,|cious|me;|mu-|to|is|||||||
w: |I|Him,|from|fold;|arms|hath|are|||||||
w: |sur-|me,|er|flow;|guide|to|wher-|||||||
w: |be|Him,|den|down;|ev-|be|ing|||||||
 x6 | x6 | E3- E2 |] %17
w: |||
w: ||hap- *|
w: |||
w: |||
V:3
 G, | (B,3- B,)A,B, E<DC x3 | B,3 [E,G,-]3 G,2 E | D3- DCB, A,<B,A, | G,3- [E,G,-]3 [E,G,]2 G, | %5
w: ~|~ * ~ ~ ~ ~ ~|~ ~ * ~|~ * ~ ~ ~ ~ ~|~ ~ ~ ~|
 B,3- B,A,B, E<DC x3 | B,3 [E,G,-]3 G,2 B, | =A,3- A,A,A, A,>A,A, x3 | [B,,A,]6- [B,,A,]3 || %9
w: ~ * ~ ~ ~ ~ ~|py in * Him,|hap- * py in Him; * *||
 [E,G,]3- [E,G,]2 [E,G,] | [F,A,]<[F,A,][B,,A,] [A,B,]3 | [B,,A,]3- [B,,A,]2 [B,,D] | %12
w: |||
 [C,E]<[G,E][B,E] [E,E]2 [E,B,] | [E,B,]>[F,B,][G,B,] [A,C]2 [G,B,] | %14
w: ||
 [F,A,]>[B,,A,][B,,A,] [C,G,]2 [B,,A,] | [E,G,]2 [E,B,] [B,,A,]<[B,,B,][B,,A,] | %16
w: ||
 [E,G,]3- [E,G,]2 |] %17
w: |
V:4
 x | E,,6 E,3 [E,,E,]3 | E,,6 [E,,E,]3 | [B,,,B,,]6 [B,,,B,,]3 | E,,6 x3 | E,,6 E,3 [E,,E,]3 | %6
w: |~ ~ ~|~ ~|~ ~|~|I am hap-|
 E,,6 [E,,E,]3 | F,,6 E,3 [F,,E,]3 | x9 || x6 | x6 | x6 | x6 | x6 | x6 | x6 | x5 |] %17
w: I am|||||||||||

